src/assets/checkmark-outline.svg

<svg xmlns="http://www.w3.org/2000/svg" fill="none" viewBox="0 0 24 24"><path fill="currentColor" d="m10.5 16.0605-3.75-3.7508L7.80976 11.25 10.5 13.9395 16.1888 8.25 17.25 9.31125 10.5 16.0605Z"/><path fill="currentColor" d="M12 1.5A10.49996 10.49996 0 0 0 1.70176 14.0484a10.49985 10.49985 0 0 0 2.87362 5.3762 10.4993 10.4993 0 0 0 5.37618 2.8736 10.49888 10.49888 0 0 0 6.06664-.5975 10.49957 10.49957 0 0 0 4.7122-3.8672A10.49968 10.49968 0 0 0 22.5 12c0-2.78477-1.1062-5.45549-3.0754-7.42462C17.4555 2.60625 14.7848 1.5 12 1.5ZM12 21c-1.78 0-3.52008-.5278-5.00013-1.5168a8.99983 8.99983 0 0 1-3.82693-9.239 8.99994 8.99994 0 0 1 7.07126-7.07127 9.00033 9.00033 0 0 1 5.2.51215 8.99985 8.99985 0 0 1 4.039 3.31479A8.99955 8.99955 0 0 1 21 12c0 2.3869-.9482 4.6761-2.636 6.364C16.6761 20.0518 14.387 21 12 21Z"/></svg>

<svg  viewBox="0 0 24 24" fill="none" xmlns="http://www.w3.org/2000/svg">

<path d="M10.5 16.0605L6.75 12.3097L7.80976 11.25L10.5 13.9395L16.1888 8.25L17.25 9.31125L10.5 16.0605Z" fill="currentColor"/>
<path d="M12 1.5C9.9233 1.5 7.89323 2.11581 6.16652 3.26957C4.4398 4.42332 3.09399 6.0632 2.29927 7.98182C1.50455 9.90045 1.29661 12.0116 1.70176 14.0484C2.1069 16.0852 3.10693 17.9562 4.57538 19.4246C6.04383 20.8931 7.91476 21.8931 9.95156 22.2982C11.9884 22.7034 14.0996 22.4955 16.0182 21.7007C17.9368 20.906 19.5767 19.5602 20.7304 17.8335C21.8842 16.1068 22.5 14.0767 22.5 12C22.5 9.21523 21.3938 6.54451 19.4246 4.57538C17.4555 2.60625 14.7848 1.5 12 1.5ZM12 21C10.22 21 8.47992 20.4722 6.99987 19.4832C5.51983 18.4943 4.36628 17.0887 3.68509 15.4442C3.0039 13.7996 2.82567 11.99 3.17294 10.2442C3.5202 8.49836 4.37737 6.89471 5.63604 5.63604C6.89472 4.37737 8.49836 3.5202 10.2442 3.17293C11.99 2.82567 13.7996 3.0039 15.4442 3.68508C17.0887 4.36627 18.4943 5.51983 19.4832 6.99987C20.4722 8.47991 21 10.22 21 12C21 14.3869 20.0518 16.6761 18.364 18.364C16.6761 20.0518 14.387 21 12 21Z" fill="currentColor"/>
</svg>
